X:1
T:James Gibb editions
T:Der Herr schauet vom Himmel - Schütz
T:#
%%score [ 1 2 ] 3
L:1/8
Q:1/4=200
M:4/2
K:C
V:1 treble nm="Soprano"
V:2 bass nm="Bass"
V:3 bass nm="Continuo"
V:1
"^Der Herr schauet vom Himmel, SWV 292""^Heinrich Schütz\n(1585-1672)""^Psalm 14: 2-3" z16 | z16 | %2
w: ||
 z16 | z8 d8- | d4 B4 e8 | ^c4 A4 d8 | B4 d2 c2 B2 A2 G4 | A8 z4 d2 c2 | B2 A2 G4 E4 A2 G2 | %9
w: |Der|* Herr schau-|et vom Him-|mel auf der Men- schen Kin-|der, auf der|Men- schen Kin- der, auf der|
 F2 E2 (D8 ^C4) | D8 z4 G4- | G4 E4 A8 | ^F4 d8 B4 | e8 ^c4 A4- | A4 (d6 c2 c4- | c4 B4) c4 e2 d2 | %16
w: Men- schen Kin\- *|der, der|* Herr schau-|et, der Herr|schau- et vom|* Him\- * *|* * mel auf der|
 c2 B2 A4 G4 d2 c2 | B2 A2 (G8 ^F4) | G8 ||[M:3/2] z12 | z12 |[M:3/2] G8 B4 | c4 c8 | c4 B4 G4 | %24
w: Men- schen Kin- der, auf der|Men- schen Kin\- *|der.|||dass er|se- he,|ob je- mand|
 A12 | G12 | A8 c4 | d4 d8 | D8 E4 | G2 G2 G4 B4 | c4 c8 | c4 B4 G4 ||[M:4/2] A8 ^G4 E4 | %33
w: klug|sei,|dass er|se- he,|dass er|se- he, dass er|se- he,|ob je- mand|klug sei und|
 F4 A2 (A4 ^G^F G4) | A8[Q:1/4=120] GGAB cBBA | %35
w: nach Gott fra\- * * *|ge, a- ber sie sind al- le ab- ge-|
[M:4/2][Q:1/4=120][Q:1/4=120][Q:1/4=120] A2 Bc dccB BBcd e2 dc | c>c c2 z2 A2 z2 (c/d/e/c/) d4 | %37
w: wi- chen und al- le- sammt un- tüch- tig, da ist kei- ner, der|Gu- tes thu, auch nicht * * * ei-|
 c8 z8 | z16 | z16 | ^FFGA BAAG G2 AB cBBA | AABc d2 cB B>B B2 z2 G2 | z2 (E/F/G/E/) (A8 ^G4) | %43
w: ner,|||a- ber sie sind al- le ab- ge- wi- chen und al- le- sammt un-|tüch- tig, da ist kei- ner, der Gu- tes thu, auch|nicht * * * ei\- *|
 A4 EE^FG AGGF F2 F2 | z4 GGAB cBBA A2 A2 | z8 z4 c4 | z4 d4 A8 | B16 |] %48
w: ner. a- ber sie sind al- le ab- ge- wi- chen,|a- ber sie sind al- le ab- ge- wi- chen,|auch|nicht ei-|ner.|
V:2
 G,12 E,4 | A,8 ^F,4 D,4 | G,8 D,4 E,2 D,2 | C,2 B,,2 A,,4 G,,8 | z16 | z16 | z16 | z4 D,8 B,,4 | %8
w: Der Herr|schau- et vom|Him- mei auf der|Men- schen Kin- der,||||der Herr|
 E,8 ^C,4 A,,4 | D,8 A,,4 A,2 G,2 | F,2 E,2 D,4 C,8 | z4 C,8 A,,4 | D,8 B,,4 G,4- | G,4 E,4 A,8 | %14
w: schau- et vom|Him- mei auf der|Men- schen Kin- der,|der Herr|schau- et, der|* Herr schau-|
 ^F,4 D,4 (E,6 =F,2 | G,8 C,4 C2 B,2 | A,2 G,2 F,4 C,4 z4 | G,2 F,2 E,2 D,2 (C,4 D,4) | G,,8 || %19
w: et vom Hirn\- *|* mei auf der|Men- schen Kin- der,|auf der Men- schen Kin\- *|der.|
[M:3/2] G,8 B,4 | C4 C8 |[M:3/2] C4 B,4 G,4 | A,12 | E,12 | z12 | C,8 E,4 | F,4 F,8 | D,8 ^F,4 | %28
w: dass er|se- he,|ob je- mand|klug|sei,||dass er|se- he,|dass er|
 G,4 G,8 | E,8 ^G,4 | A,4 A,8 | A,4 G,4 E,4 ||[M:4/2] F,8 E,4 C,4 | D,4 A,,4 E,8 | A,,8 z8 | %35
w: se- he,|dass er|se- he,|ob je- mand|klug sei und|nach Gott fra-|ge,|
[M:4/2] z16 | z16 | z8 C,C,D,E, F,E,E,D, | D,2 E,F, G,F,F,E, E,E,F,G, A,2 G,F, | %39
w: ||a- ber sie sind al- le ab- ge-|wi- chen und al- le- sammt un- tüch- tig, da ist kei- ner, der|
 F,>F, F,2 z2 _B,2 z2 G,/A,/B,/G,/) A,4 | D,4 B,,B,,C,D, E,D,D,C, C,2 D,E, | %41
w: Gu- tes thu, auch nicht * * * ei-|ner, a- ber sie sind al- le ab- ge- wi- chen und|
 F,E,E,D, D,D,E,F, G,2 F,E, E,>E, E,2 | z2 C,2 z2 (A,,/B,,/C,/A,,/) E,8 | A,,4 z4 z4 z2 z D, | %44
w: al- le- sammt un- tüch- tig, da ist kei- ner, der Gu- tes thu,|auch nicht * * * ei-|ner, und|
 G,F,F,E, E,2 E,2 z2 z A,, D,C,C,B,, | B,,B,,C,D, E,2 D,C, C,>C, C,2 z4 | A,,4 z2 B,,2 D,8 | %47
w: al- le- sammt un- tüch- tig, und al- le- sammt un-|tüch- tig, da ist kei- ner, der Gut- tes thu,|auch nicht ei-|
 G,,16 |] %48
w: ner.|
V:3
 G,12 E,4 | A,8 ^F,4 D,4 | G,8 D,4 E,2 D,2 | C,2 B,,2 A,,4 G,,8- | G,,4 G,4 C6 B,2 | A,6 G,2 ^F,8 | %6
w: ||||||
 G,4 G,6 F,2 E,4 | D,12 B,,4 | E,8 ^C,4 A,,4 | D,8 A,,4- A,,4 | D,8 C,8 | C,8- C,4 A,,4 | %12
w: |||* 4 *||* 6 *|
 D,8 B,,4 G,4- | G,4 E,4 A,8 | ^F,4 D,4 E,4- E,2 =F,2 | G,4- G,4 C,4 C2 B,2 | %16
w: ||* * 7~~6 * *|4 3 * * *|
 A,2 G,2 F,4 C,4 G,,4 | G,2 F,2 E,2 D,2 C,4 D,4 | G,,8 ||[M:3/2] G,8 B,4 | C4 C8 | %21
w: |||||
[M:3/2] C4 B,4 G,4 | A,12 | E,4- E,4 E,4 | F,12 | C,8 E,4 | F,4 F,8 | D,8 ^F,4 | G,4 G,8 | %29
w: * 6 *||6 5 *||||* 6||
 E,8 ^G,4 | A,4 A,8 | A,4 G,4 E,4 ||[M:4/2] F,8 E,4 C,4 | D,4 A,,4 E,4- E,4 | A,,8 C,4 E,4 | %35
w: ||||* * 4 *|* * 6~~~~~~~5|
[M:4/2] F,4 ^F,4 G,4 ^G,4 | A,4 F,6 E,2 G,4 | C,8 F,,4 A,,4 | _B,,4 =B,,4 C,4 ^C,4 | %39
w: * 6~~~~~~~~~5 * 6~~~~~~5||* * 6~~~~~~5|* 6~~~~~~~~~~~~5 * 6~~~~~5|
 D,4 _B,,4 G,,4 A,,4 | D,4 B,,4 E,4 C,4 | F,4 D,4 G,4 E,4 | C,4 A,,4 E,4- E,4 | A,,4 C,4 ^C,4 D,4 | %44
w: |||* * 4 *|* * 6~~~~~~5 *|
 B,,4 C,4 A,,4 D,4 | B,,4 E,4 C,4 A,,4- | A,,4 B,,4 D,4- D,4 | G,,16 |] %48
w: 6~~~~~~~~~~~~5 * * *||* 6 4 *||

